shared/images/iconfont/51-kb-iconfont-identity-reddit-16.svg

<?xml version="1.0" encoding="UTF-8"?>
<svg width="16px" height="16px" viewBox="0 0 16 16" version="1.1" xmlns="http://www.w3.org/2000/svg" xmlns:xlink="http://www.w3.org/1999/xlink">
    <!-- Generator: sketchtool 57.1 (101010) - https://sketch.com -->
    <title>FD4E6E80-C3CA-40AB-9517-C9D1ED6F9C4C</title>
    <desc>Created with sketchtool.</desc>
    <g id="Symbols" stroke="none" stroke-width="1" fill="none" fill-rule="evenodd">
        <g id="51-kb-iconfont-identity-reddit-16">
            <g>
                <rect id="icon-area" fill="#D8D8D8" opacity="0" x="0" y="0" width="16" height="16"></rect>
                <path d="M8,0 C12.418278,0 16,3.581722 16,8 C16,12.418278 12.418278,16 8,16 C3.581722,16 0,12.418278 0,8 C0,3.581722 3.581722,0 8,0 Z M12.409369,2.5 C12.1629507,2.5 11.9395525,2.57066184 11.7281874,2.69994684 C11.5288554,2.84074711 11.3760866,3.01714 11.281914,3.24011737 L9.00398422,2.69994684 C8.94538796,2.68790816 8.88679169,2.68790816 8.82767225,2.72350079 C8.76907598,2.75857 8.7219897,2.80567789 8.71047972,2.86430105 L7.82944301,5.63686237 C6.32634417,5.66041632 5.03461043,6.02471737 3.95424179,6.71772684 C3.66073728,6.47119553 3.34368963,6.35342579 2.9795557,6.35342579 C2.56885866,6.35342579 2.21623471,6.49474947 1.93476336,6.78838868 C1.64125885,7.08202789 1.5,7.43429026 1.5,7.84569921 C1.5,8.10426921 1.55859627,8.33928526 1.68782196,8.56226263 C1.81704765,8.78524 1.98184965,8.96163289 2.19269156,9.09091789 C2.1696716,9.25527211 2.15763844,9.39659579 2.15763844,9.52588079 C2.15763844,10.0545361 2.31040728,10.5596374 2.60391178,11.0296695 C2.90944945,11.5112168 3.34368963,11.9341411 3.90767869,12.2984421 C4.44760142,12.6507045 5.07018674,12.9328284 5.7628783,13.1207366 C6.46760303,13.3086447 7.20738088,13.4028605 7.97070187,13.4028605 C8.73402286,13.4028605 9.47380071,13.3086447 10.1664923,13.1207366 C10.871217,12.9328284 11.4938023,12.6507045 12.045235,12.2984421 C12.6092241,11.9341411 13.0319543,11.5112168 13.3369688,11.0296695 C13.6309965,10.5596374 13.7832421,10.0545361 13.7832421,9.52588079 C13.7832421,9.39659579 13.7717321,9.26731079 13.748189,9.12598711 C13.9830972,8.99670211 14.1594092,8.82083263 14.3001449,8.58581658 C14.4293706,8.36231579 14.5,8.11578447 14.5,7.84569921 C14.5,7.43429026 14.3587411,7.08202789 14.0652366,6.78838868 C13.7832421,6.49474947 13.4311413,6.35342579 13.0199211,6.35342579 C12.6327672,6.35342579 12.3157196,6.48271079 12.033725,6.72924211 C11.0119527,6.07182526 9.79084836,5.70752421 8.35837894,5.64890105 L9.12117675,3.24011737 L11.1882646,3.73370342 C11.1882646,4.06241184 11.3174903,4.35605105 11.5523986,4.59106711 C11.7873068,4.82608316 12.0687782,4.94385289 12.409369,4.94385289 C12.7384498,4.94385289 13.0199211,4.82608316 13.2668625,4.57955184 C13.5017708,4.34453579 13.6189633,4.05089658 13.6189633,3.71014947 C13.6189633,3.38091763 13.5017708,3.09931711 13.2668625,2.85226237 C13.0199211,2.61724632 12.7384498,2.5 12.409369,2.5 Z M9.92007405,10.9469689 C9.9901803,10.9469689 10.0492997,10.9705229 10.0958628,11.0176308 C10.1429491,11.0647387 10.1664923,11.1233618 10.1664923,11.1940237 C10.1664923,11.2762008 10.1429491,11.3348239 10.0958628,11.3819318 C9.69780935,11.780168 9.08258489,11.9910413 8.24092089,12.0234213 L8.00575499,12.0278334 L7.99424501,12.0278334 C7.0310689,12.0278334 6.33837733,11.8163713 5.90361397,11.3819318 C5.85705087,11.3348239 5.83350773,11.2762008 5.83350773,11.1940237 C5.83350773,11.1233618 5.85705087,11.0647387 5.90361397,11.0176308 C5.95070026,10.9705229 6.00929652,10.9469689 6.07992595,10.9469689 C6.15055538,10.9469689 6.20915164,10.9705229 6.25623793,11.0176308 C6.56586592,11.3274009 7.06963296,11.4913917 7.77618665,11.5186482 L7.99424501,11.5227321 L8.00575499,11.5227321 C8.82767225,11.5227321 9.40317128,11.3583779 9.74376207,11.0176308 C9.79084836,10.9705229 9.84944462,10.9469689 9.92007405,10.9469689 Z M6.05638281,7.91583763 C6.29129105,7.91583763 6.50265615,8.01005342 6.67896813,8.18644632 C6.85475692,8.36231579 6.94892949,8.57377789 6.94892949,8.82083263 C6.94892949,9.06736395 6.85475692,9.27882605 6.67896813,9.45521895 C6.50265615,9.63161184 6.29129105,9.71378895 6.05638281,9.71378895 C5.79793142,9.71378895 5.58656632,9.63161184 5.41077753,9.45521895 C5.23446555,9.27882605 5.14029298,9.06736395 5.14029298,8.82083263 C5.14029298,8.57377789 5.23446555,8.36231579 5.41077753,8.18644632 C5.59859948,8.01005342 5.80996458,7.91583763 6.05638281,7.91583763 Z M9.96716033,7.91583763 C10.2015454,7.91583763 10.4134337,8.01005342 10.5892225,8.18644632 C10.7655344,8.36231579 10.8591838,8.57377789 10.8591838,8.82083263 C10.8591838,9.06736395 10.7655344,9.27882605 10.5892225,9.45521895 C10.4134337,9.63161184 10.2015454,9.71378895 9.96716033,9.71378895 C9.70870895,9.71378895 9.49734385,9.63161184 9.32103187,9.45521895 C9.1447199,9.27882605 9.05107051,9.06736395 9.05107051,8.82083263 C9.05107051,8.57377789 9.1447199,8.36231579 9.32103187,8.18644632 C9.50885383,8.01005342 9.72021893,7.91583763 9.96716033,7.91583763 Z" id="Combined-Shape" fill="#000000"></path>
            </g>
        </g>
    </g>
</svg>

<svg xmlns="http://www.w3.org/2000/svg" width="16" height="16" viewBox="0 0 16 16">
    <path fill="#000" fill-rule="evenodd" d="M8 0a8 8 0 1 1 0 16A8 8 0 0 1 8 0zm4.41 2.5c-.247 0-.47.07-.682.2-.2.14-.352.317-.446.54L9.004 2.7a.232.232 0 0 0-.176.024c-.059.035-.106.082-.118.14l-.88 2.773c-1.504.023-2.795.388-3.876 1.08a1.46 1.46 0 0 0-.974-.364c-.411 0-.764.142-1.045.435A1.437 1.437 0 0 0 1.5 7.846c0 .258.059.493.188.716.129.223.294.4.505.529a3.145 3.145 0 0 0-.035.435c0 .529.152 1.034.446 1.504.305.481.74.904 1.304 1.268.54.353 1.162.635 1.855.823a8.555 8.555 0 0 0 2.208.282c.763 0 1.503-.094 2.195-.282a6.647 6.647 0 0 0 1.88-.823c.563-.364.986-.787 1.291-1.268.294-.47.446-.975.446-1.504a2.4 2.4 0 0 0-.035-.4 1.456 1.456 0 0 0 .752-1.28c0-.412-.141-.764-.435-1.058a1.392 1.392 0 0 0-1.045-.435c-.387 0-.704.13-.986.376-1.022-.657-2.243-1.021-3.676-1.08l.763-2.409 2.067.494c0 .328.13.622.364.857.235.235.517.353.857.353.33 0 .61-.118.858-.364.235-.235.352-.53.352-.87a1.2 1.2 0 0 0-1.21-1.21zm-2.49 8.447a.24.24 0 0 1 .246.247c0 .082-.023.14-.07.188-.398.398-1.013.609-1.855.641l-.235.005h-.012c-.963 0-1.656-.212-2.09-.646a.25.25 0 0 1-.07-.188.24.24 0 0 1 .246-.247c.07 0 .13.024.176.07.31.31.814.474 1.52.502l.218.004h.012c.822 0 1.397-.165 1.738-.505a.239.239 0 0 1 .176-.071zM6.056 7.916c.235 0 .447.094.623.27.176.176.27.388.27.635a.873.873 0 0 1-.27.634.852.852 0 0 1-.623.259.865.865 0 0 1-.645-.259.871.871 0 0 1-.27-.634.87.87 0 0 1 .27-.635c.188-.176.399-.27.645-.27zm3.911 0c.235 0 .446.094.622.27a.87.87 0 0 1 .27.635.87.87 0 0 1-.27.634.85.85 0 0 1-.622.259.867.867 0 0 1-.646-.259.87.87 0 0 1-.27-.634.87.87 0 0 1 .27-.635c.188-.176.4-.27.646-.27z"/>
</svg>
